pcb/footprints/custom/Converter_ACDC/Converter_ACDC_HiLink_HLK-10Mxx.svg

<?xml version="1.0" encoding="UTF-8" standalone="no"?>
<svg
   version="1.1"
   width="49.88925mm"
   height="29.05mm"
   viewBox="-4.61425 -10.625 49.88925 29.05"
   id="svg221"
   sodipodi:docname="Converter_ACDC_HiLink_HLK-10Mxx.svg"
   inkscape:version="1.1.1 (c3084ef, 2021-09-22)"
   xmlns:inkscape="http://www.inkscape.org/namespaces/inkscape"
   xmlns:sodipodi="http://sodipodi.sourceforge.net/DTD/sodipodi-0.dtd"
   xmlns="http://www.w3.org/2000/svg"
   xmlns:svg="http://www.w3.org/2000/svg">
  <defs
     id="defs225" />
  <sodipodi:namedview
     id="namedview223"
     pagecolor="#ffffff"
     bordercolor="#666666"
     borderopacity="1.0"
     inkscape:pageshadow="2"
     inkscape:pageopacity="0.0"
     inkscape:pagecheckerboard="0"
     inkscape:document-units="mm"
     showgrid="false"
     inkscape:zoom="5.9769471"
     inkscape:cx="86.749973"
     inkscape:cy="77.631606"
     inkscape:window-width="1908"
     inkscape:window-height="1436"
     inkscape:window-x="1924"
     inkscape:window-y="25"
     inkscape:window-maximized="0"
     inkscape:current-layer="boardContainer" />
  <title
     id="title2">Picture generated by PcbDraw </title>
  <desc
     id="desc4">Picture generated by PcbDraw</desc>
  <g
     transform=""
     id="boardContainer">
    <g
       id="substrate-crt"
       style="fill:#000000;stroke:#000000">
      <g
         style="stroke-width:0.05;stroke-linecap:round;stroke-linejoin:round;stroke-opacity:1"
         id="g31">
        <path
           d="m 45.25,18.4 v -29"
           id="path23" />
        <path
           d="m 45.25,-10.6 h -48"
           id="path25" />
        <path
           d="m -2.75,18.4 h 48"
           id="path27" />
        <path
           d="m -2.75,-10.6 v 29"
           id="path29" />
      </g>
    </g>
    <g
       id="substrate-fab"
       style="fill:#000000;stroke:#000000">
      <g
         style="stroke-width:0.1;stroke-linecap:round;stroke-linejoin:round;stroke-opacity:1"
         id="g124">
        <path
           d="m 45,18.15 v -28.5"
           id="path110" />
        <path
           d="m -1.5,0 -1,1"
           id="path112" />
        <path
           d="M -2.5,18.15 H 45"
           id="path114" />
        <path
           d="M -2.5,18.15 V 1"
           id="path116" />
        <path
           d="m -2.5,-1 1,1"
           id="path118" />
        <path
           d="m -2.5,-1 v -9.35"
           id="path120" />
        <path
           d="M -2.5,-10.35 H 45"
           id="path122" />
      </g>
    </g>
    <g
       id="substrate-silk"
       style="fill:#61caff;stroke:#61caff"
       mask="url(#pads-mask-silkscreen)">
      <g
         style="stroke-width:0.15;stroke-linecap:round;stroke-linejoin:round;stroke-opacity:1"
         id="g203">
        <g
           transform="rotate(-90,-4,17)"
           id="g129">
          <text
             x="-4"
             y="17.299999"
             textLength="2.07286"
             font-size="0.8px"
             lengthAdjust="spacingAndGlyphs"
             text-anchor="middle"
             opacity="0"
             stroke-opacity="0"
             id="text127">PS1</text>
        </g>
        <g
           class="stroked-text"
           id="g201">
          <desc
             id="desc131">PS1</desc>
          <path
             d="m -3.73023,17.72857 h -0.6"
             id="path133" />
          <path
             d="M -4.33023,17.72857 V 17.5"
             id="path135" />
          <path
             d="m -4.33023,17.5 0.02857,-0.05714"
             id="path137" />
          <path
             d="m -4.30166,17.44286 0.02857,-0.02857"
             id="path139" />
          <path
             d="m -4.27309,17.41429 0.05715,-0.02858"
             id="path141" />
          <path
             d="m -4.21594,17.38571 h 0.08571"
             id="path143" />
          <path
             d="m -4.13023,17.38571 0.05715,0.02858"
             id="path145" />
          <path
             d="m -4.07308,17.41429 0.02857,0.02857"
             id="path147" />
          <path
             d="M -4.04451,17.44286 -4.01594,17.5"
             id="path149" />
          <path
             d="m -4.01594,17.5 v 0.22857"
             id="path151" />
          <path
             d="m -3.7588,17.15714 0.02857,-0.08571"
             id="path153" />
          <path
             d="M -3.73023,17.07143 V 16.92857"
             id="path155" />
          <path
             d="M -3.73023,16.92857 -3.7588,16.87143"
             id="path157" />
          <path
             d="M -3.7588,16.87143 -3.78737,16.84286"
             id="path159" />
          <path
             d="M -3.78737,16.84286 -3.84451,16.81429"
             id="path161" />
          <path
             d="M -3.84451,16.81429 H -3.90166"
             id="path163" />
          <path
             d="M -3.90166,16.81429 -3.9588,16.84286"
             id="path165" />
          <path
             d="m -3.9588,16.84286 -0.02857,0.02857"
             id="path167" />
          <path
             d="m -3.98737,16.87143 -0.02857,0.05714"
             id="path169" />
          <path
             d="m -4.01594,16.92857 -0.02857,0.11429"
             id="path171" />
          <path
             d="M -4.04451,17.04286 -4.07308,17.1"
             id="path173" />
          <path
             d="m -4.07308,17.1 -0.02858,0.02857"
             id="path175" />
          <path
             d="M -4.10166,17.12857 -4.1588,17.15714"
             id="path177" />
          <path
             d="M -4.1588,17.15714 H -4.21594"
             id="path179" />
          <path
             d="M -4.21594,17.15714 -4.27309,17.12857"
             id="path181" />
          <path
             d="M -4.27309,17.12857 -4.30166,17.1"
             id="path183" />
          <path
             d="M -4.30166,17.1 -4.33023,17.04286"
             id="path185" />
          <path
             d="M -4.33023,17.04286 V 16.9"
             id="path187" />
          <path
             d="m -4.33023,16.9 0.02857,-0.08571"
             id="path189" />
          <path
             d="m -3.73023,16.24286 v 0.34285"
             id="path191" />
          <path
             d="m -3.73023,16.41428 h -0.6"
             id="path193" />
          <path
             d="m -4.33023,16.41428 0.08572,0.05715"
             id="path195" />
          <path
             d="m -4.24451,16.47143 0.05714,0.05714"
             id="path197" />
          <path
             d="m -4.18737,16.52857 0.02857,0.05714"
             id="path199" />
        </g>
      </g>
      <g
         style="stroke-width:0.12;stroke-linecap:round;stroke-linejoin:round;stroke-opacity:1"
         id="g215">
        <path
           d="M 45.11,18.26 V -10.46"
           id="path205" />
        <path
           d="M 45.11,-10.46 H -2.6"
           id="path207" />
        <path
           d="M -2.6,18.26 H 45.11"
           id="path209" />
        <path
           d="M -2.61,-10.46 V 18.26"
           id="path211" />
        <path
           d="M -2.99,-1 V 1.01"
           id="path213" />
      </g>
    </g>
    <rect
       style="fill:#404040;stroke:#000000;stroke-width:0.264583;fill-opacity:1;opacity:1"
       id="rect706"
       width="47.5"
       height="28.5"
       x="-2.5"
       y="-10.35" />
    <text
       xml:space="preserve"
       style="font-style:normal;font-weight:normal;font-size:3.88056px;line-height:0.9;font-family:sans-serif;fill:#000000;fill-opacity:1;stroke:none;stroke-width:0.264583"
       x="-32.476696"
       y="-2.1818891"
       id="text3353"
       transform="scale(-1)"><tspan
         sodipodi:role="line"
         id="tspan3351"
         style="font-size:3.88056px;fill:#ffffff;fill-opacity:1;stroke-width:0.264583"
         x="-32.476696"
         y="-2.1818891">HLK-10M05</tspan></text>
  </g>
  <rect
     id="origin"
     fill="red"
     height="1.0"
     x="0"
     y="0"
     width="1.0" />
</svg>

<!DOCTYPE svg PUBLIC "-//W3C//DTD SVG 1.1//EN" "http://www.w3.org/Graphics/SVG/1.1/DTD/svg11.dtd">
<svg xmlns="http://www.w3.org/2000/svg" version="1.1" width="49.88925mm" height="29.05mm" viewBox="-4.61425 -10.625 49.88925 29.05">
            <title>Picture generated by PcbDraw </title>
            <desc>Picture generated by PcbDraw</desc>
        <g transform="" id="boardContainer"><g id="KiCAD footprint top"><g id="substrate-copper" style="fill:#666666; stroke:#666666;"><g style="fill-opacity: 1.00000;stroke-opacity: 1.00000;stroke-linecap: round;stroke-linejoin: round" transform="translate(0 0) scale(1 1)">
<path style="fill-opacity: 1.00000;fill-rule: evenodd" d="M -1.30000,1.00000 -1.30000,-1.00000 1.30000,-1.00000 1.30000,1.00000 Z"/> 
</g>
<g style="fill-opacity: 1.00000">
<circle cx="0.00000" cy="7.80000" r="1.30000"/> 
</g>
<g style="fill-opacity: 1.00000">
<circle cx="42.50000" cy="-7.40000" r="1.30000"/> 
</g>
<g style="fill-opacity: 1.00000">
<circle cx="42.50000" cy="15.20000" r="1.30000"/> 
</g> 
</g><g id="substrate-crt" style="fill:#000000; stroke:#000000;"><g style="stroke-width: 0.05000;stroke-opacity: 1;stroke-linecap: round;stroke-linejoin: round">
<path d="M45.25000 18.40000 L45.25000 -10.60000 "/>
<path d="M45.25000 -10.60000 L-2.75000 -10.60000 "/>
<path d="M-2.75000 18.40000 L45.25000 18.40000 "/>
<path d="M-2.75000 -10.60000 L-2.75000 18.40000 "/>
</g> 
</g><g id="substrate-fab" style="fill:#000000; stroke:#000000;"><g style="stroke-width: 0.15000;stroke-opacity: 1;stroke-linecap: round;stroke-linejoin: round">
<text x="22.35000" y="1.50000" textLength="3.15476" font-size="1.33333" lengthAdjust="spacingAndGlyphs" text-anchor="middle" opacity="0" stroke-opacity="0">PS1</text>
<g class="stroked-text"><desc>PS1</desc>
<path d="M21.13571 1.45482 L21.13571 0.45482 "/>
<path d="M21.13571 0.45482 L21.51667 0.45482 "/>
<path d="M21.51667 0.45482 L21.61190 0.50244 "/>
<path d="M21.61190 0.50244 L21.65952 0.55006 "/>
<path d="M21.65952 0.55006 L21.70714 0.64529 "/>
<path d="M21.70714 0.64529 L21.70714 0.78815 "/>
<path d="M21.70714 0.78815 L21.65952 0.88339 "/>
<path d="M21.65952 0.88339 L21.61190 0.93101 "/>
<path d="M21.61190 0.93101 L21.51667 0.97863 "/>
<path d="M21.51667 0.97863 L21.13571 0.97863 "/>
<path d="M22.08809 1.40720 L22.23095 1.45482 "/>
<path d="M22.23095 1.45482 L22.46905 1.45482 "/>
<path d="M22.46905 1.45482 L22.56428 1.40720 "/>
<path d="M22.56428 1.40720 L22.61190 1.35958 "/>
<path d="M22.61190 1.35958 L22.65952 1.26434 "/>
<path d="M22.65952 1.26434 L22.65952 1.16910 "/>
<path d="M22.65952 1.16910 L22.61190 1.07387 "/>
<path d="M22.61190 1.07387 L22.56428 1.02625 "/>
<path d="M22.56428 1.02625 L22.46905 0.97863 "/>
<path d="M22.46905 0.97863 L22.27857 0.93101 "/>
<path d="M22.27857 0.93101 L22.18333 0.88339 "/>
<path d="M22.18333 0.88339 L22.13571 0.83577 "/>
<path d="M22.13571 0.83577 L22.08809 0.74053 "/>
<path d="M22.08809 0.74053 L22.08809 0.64529 "/>
<path d="M22.08809 0.64529 L22.13571 0.55006 "/>
<path d="M22.13571 0.55006 L22.18333 0.50244 "/>
<path d="M22.18333 0.50244 L22.27857 0.45482 "/>
<path d="M22.27857 0.45482 L22.51667 0.45482 "/>
<path d="M22.51667 0.45482 L22.65952 0.50244 "/>
<path d="M23.61190 1.45482 L23.04048 1.45482 "/>
<path d="M23.32619 1.45482 L23.32619 0.45482 "/>
<path d="M23.32619 0.45482 L23.23095 0.59768 "/>
<path d="M23.23095 0.59768 L23.13571 0.69291 "/>
<path d="M23.13571 0.69291 L23.04048 0.74053 "/>
</g></g>
<g style="stroke-width: 0.10000;stroke-opacity: 1;stroke-linecap: round;stroke-linejoin: round">
<path d="M45.00000 18.15000 L45.00000 -10.35000 "/>
<path d="M-1.50000 0.00000 L-2.50000 1.00000 "/>
<path d="M-2.50000 18.15000 L45.00000 18.15000 "/>
<path d="M-2.50000 18.15000 L-2.50000 1.00000 "/>
<path d="M-2.50000 -1.00000 L-1.50000 0.00000 "/>
<path d="M-2.50000 -1.00000 L-2.50000 -10.35000 "/>
<path d="M-2.50000 -10.35000 L45.00000 -10.35000 "/>
</g> 
</g><g id="substrate-silk" style="fill:#61caff; stroke:#61caff;" mask="url(#pads-mask-silkscreen)"><g style="stroke-width: 0.15000;stroke-opacity: 1;stroke-linecap: round;stroke-linejoin: round">
<g transform="rotate(-90.000000 -4.00000 17.00000)">
<text x="-4.00000" y="17.30000" textLength="2.07286" font-size="0.80000" lengthAdjust="spacingAndGlyphs" text-anchor="middle" opacity="0" stroke-opacity="0">PS1</text>
</g>
<g class="stroked-text"><desc>PS1</desc>
<path d="M-3.73023 17.72857 L-4.33023 17.72857 "/>
<path d="M-4.33023 17.72857 L-4.33023 17.50000 "/>
<path d="M-4.33023 17.50000 L-4.30166 17.44286 "/>
<path d="M-4.30166 17.44286 L-4.27309 17.41429 "/>
<path d="M-4.27309 17.41429 L-4.21594 17.38571 "/>
<path d="M-4.21594 17.38571 L-4.13023 17.38571 "/>
<path d="M-4.13023 17.38571 L-4.07308 17.41429 "/>
<path d="M-4.07308 17.41429 L-4.04451 17.44286 "/>
<path d="M-4.04451 17.44286 L-4.01594 17.50000 "/>
<path d="M-4.01594 17.50000 L-4.01594 17.72857 "/>
<path d="M-3.75880 17.15714 L-3.73023 17.07143 "/>
<path d="M-3.73023 17.07143 L-3.73023 16.92857 "/>
<path d="M-3.73023 16.92857 L-3.75880 16.87143 "/>
<path d="M-3.75880 16.87143 L-3.78737 16.84286 "/>
<path d="M-3.78737 16.84286 L-3.84451 16.81429 "/>
<path d="M-3.84451 16.81429 L-3.90166 16.81429 "/>
<path d="M-3.90166 16.81429 L-3.95880 16.84286 "/>
<path d="M-3.95880 16.84286 L-3.98737 16.87143 "/>
<path d="M-3.98737 16.87143 L-4.01594 16.92857 "/>
<path d="M-4.01594 16.92857 L-4.04451 17.04286 "/>
<path d="M-4.04451 17.04286 L-4.07308 17.10000 "/>
<path d="M-4.07308 17.10000 L-4.10166 17.12857 "/>
<path d="M-4.10166 17.12857 L-4.15880 17.15714 "/>
<path d="M-4.15880 17.15714 L-4.21594 17.15714 "/>
<path d="M-4.21594 17.15714 L-4.27309 17.12857 "/>
<path d="M-4.27309 17.12857 L-4.30166 17.10000 "/>
<path d="M-4.30166 17.10000 L-4.33023 17.04286 "/>
<path d="M-4.33023 17.04286 L-4.33023 16.90000 "/>
<path d="M-4.33023 16.90000 L-4.30166 16.81429 "/>
<path d="M-3.73023 16.24286 L-3.73023 16.58571 "/>
<path d="M-3.73023 16.41428 L-4.33023 16.41428 "/>
<path d="M-4.33023 16.41428 L-4.24451 16.47143 "/>
<path d="M-4.24451 16.47143 L-4.18737 16.52857 "/>
<path d="M-4.18737 16.52857 L-4.15880 16.58571 "/>
</g></g>
<g style="stroke-width: 0.12000;stroke-opacity: 1;stroke-linecap: round;stroke-linejoin: round">
<path d="M45.11000 18.26000 L45.11000 -10.46000 "/>
<path d="M45.11000 -10.46000 L-2.60000 -10.46000 "/>
<path d="M-2.60000 18.26000 L45.11000 18.26000 "/>
<path d="M-2.61000 -10.46000 L-2.61000 18.26000 "/>
<path d="M-2.99000 -1.00000 L-2.99000 1.01000 "/>
</g> 
</g></g></g><rect id="origin" fill="red" width="1.0" height="1.0" x="0" y="0"/></svg>
